www/assets/icons/text_rotate_vertical.svg

<svg xmlns="http://www.w3.org/2000/svg" width="24" height="24" viewBox="0 0 24 24" fill='currentColor'><path d="M16 5h-1.5L9.75 16h2.1l.9-2.2h5l.9 2.2h2.1zm-2.62 7 1.87-5.02L17.12 12zm-7.13 7.75 3-3h-2V4.25h-2v12.5h-2z"/></svg>

<svg width="24" height="24" viewBox="0 0 24 24" xmlns="http://www.w3.org/2000/svg" fill='currentColor'><path d="M16 5H14.5L9.75 16H11.85L12.75 13.8H17.75L18.65 16H20.75L16 5ZM13.38 12L15.25 6.98L17.12 12H13.38ZM6.25 19.75L9.25 16.75H7.25V4.25H5.25V16.75H3.25L6.25 19.75Z"/></svg>
